resources/icons/svg/play.svg

<svg xmlns:svg="http://www.w3.org/2000/svg" xmlns="http://www.w3.org/2000/svg" xmlns:xlink="http://www.w3.org/1999/xlink" width="48" height="48" id="svg1307" version="1.1"><defs id="defs1309"><linearGradient id="linearGradient2584"><stop offset="0" id="stop2586" style="stop-color:#000000;stop-opacity:1"/><stop offset="1" id="stop2588" style="stop-color:#ffffff;stop-opacity:0"/></linearGradient><linearGradient id="linearGradient5075"><stop offset="0" id="stop5077" style="stop-color:#adb0a8;stop-opacity:1"/><stop offset="1" id="stop5079" style="stop-color:#464744;stop-opacity:1"/></linearGradient><linearGradient id="linearGradient2691"><stop id="stop2693" offset="0" style="stop-color:#ffffff;stop-opacity:1"/><stop id="stop2695" offset="1" stop-color="#d3d7cf"/></linearGradient><linearGradient id="linearGradient3340"><stop offset="0" id="stop3342" style="stop-color:#ffffff;stop-opacity:1"/><stop offset="1" id="stop3344" style="stop-color:#ffffff;stop-opacity:0"/></linearGradient><radialGradient xlink:href="#linearGradient2691" id="radialGradient2068" gradientUnits="userSpaceOnUse" gradientTransform="matrix(0.05324342,-0.836238,2.019473,0.128568,-106.9191,179.1711)" cx="110.35" cy="84.47" fx="110.35" fy="84.47" r="12.55"/><linearGradient xlink:href="#linearGradient2584" id="linearGradient2070" gradientUnits="userSpaceOnUse" gradientTransform="translate(1.625686,-26.6018)" x1="56.81" y1="112.15" x2="57.25" y2="114.1"/><linearGradient xlink:href="#linearGradient2584" id="linearGradient2072" gradientUnits="userSpaceOnUse" gradientTransform="translate(1.625686,-26.6018)" x1="58.55" y1="115.94" x2="59.17" y2="119.1"/><linearGradient xlink:href="#linearGradient2584" id="linearGradient2074" gradientUnits="userSpaceOnUse" gradientTransform="translate(1.625686,-26.6018)" x1="59.18" y1="120.82" x2="60.51" y2="126.43"/><linearGradient xlink:href="#linearGradient2584" id="linearGradient2076" gradientUnits="userSpaceOnUse" gradientTransform="translate(1.625686,-26.6018)" x1="58.09" y1="129.02" x2="61.18" y2="134.54"/><linearGradient xlink:href="#linearGradient5075" id="linearGradient2078" gradientUnits="userSpaceOnUse" x1="57.94" y1="86" x2="57.94" y2="103.04"/><linearGradient xlink:href="#linearGradient3340" id="linearGradient2080" gradientUnits="userSpaceOnUse" gradientTransform="translate(44.99988,70.99999)" x1="13.38" y1="17.81" x2="13.5" y2="32.94"/></defs><metadata id="metadata1312"/><g id="layer4"/><g transform="matrix(1.4657905,0,0,1.4657905,-77.945693,-115.2501)" id="g3490"><g id="g3480"><path id="path3375" d="M57.5 108.91 57.5 81.09 81.6 95 57.5 108.91Z" fill="url(#radialGradient2068)"/><g id="g3469" opacity="0.2"><path d="m64.06 84.88-6.56 0.59 0 2.03 9.56-0.87-3-1.75z" id="rect3359" style="fill:url(#linearGradient2070);opacity:0.35"/><path d="m70.06 88.34-12.56 1.16 0 3 17.06-1.56-4.5-2.6z" id="rect3361" style="fill:url(#linearGradient2072);opacity:0.35"/><path d="m77.56 92.69-20.06 1.84 0 6 17.25-1.59 6.84-3.94-4.03-2.31z" id="rect3363" style="fill:url(#linearGradient2074);opacity:0.35"/><path d="m70.59 101.34-13.09 1.22 0 6.35 13.09-7.57z" id="rect3365" style="fill:url(#linearGradient2076);opacity:0.35"/></g><path id="path2479" d="M57.5 108.91 57.5 81.09 81.6 95 57.5 108.91Z" style="fill:none;stroke-linecap:square;stroke-linejoin:round;stroke:url(#linearGradient2078)"/><path id="path2481" d="M58 81.97 58 108.03 80.59 95 58 81.97ZM59 83.72 78.56 95 59 106.28 59 83.72Z" fill="url(#linearGradient2080)"/></g></g></svg>

<svg xmlns:svg="http://www.w3.org/2000/svg" xmlns="http://www.w3.org/2000/svg" xmlns:xlink="http://www.w3.org/1999/xlink" width="48" height="48" id="svg1307"><defs id="defs1309"><linearGradient id="linearGradient2584"><stop offset="0" id="stop2586" style="stop-color:#000000;stop-opacity:1"/><stop offset="1" id="stop2588" style="stop-color:#ffffff;stop-opacity:0"/></linearGradient><linearGradient id="linearGradient5075"><stop offset="0" id="stop5077" style="stop-color:#adb0a8;stop-opacity:1"/><stop offset="1" id="stop5079" style="stop-color:#464744;stop-opacity:1"/></linearGradient><linearGradient id="linearGradient2691"><stop id="stop2693" offset="0" style="stop-color:#ffffff;stop-opacity:1"/><stop id="stop2695" offset="1" stop-color="#d3d7cf"/></linearGradient><linearGradient id="linearGradient3340"><stop offset="0" id="stop3342" style="stop-color:#ffffff;stop-opacity:1"/><stop offset="1" id="stop3344" style="stop-color:#ffffff;stop-opacity:0"/></linearGradient><linearGradient id="linearGradient8662"><stop offset="0" id="stop8664" style="stop-color:#000000;stop-opacity:1"/><stop offset="1" id="stop8666" style="stop-color:#000000;stop-opacity:0"/></linearGradient><radialGradient xlink:href="#linearGradient2691" id="radialGradient2068" gradientUnits="userSpaceOnUse" gradientTransform="matrix(5.324342e-2,-0.836238,2.019473,0.128568,-106.9191,179.1711)" cx="110.35" cy="84.47" fx="110.35" fy="84.47" r="12.55"/><linearGradient xlink:href="#linearGradient2584" id="linearGradient2070" gradientUnits="userSpaceOnUse" gradientTransform="translate(1.625686,-26.60180)" x1="56.81" y1="112.15" x2="57.25" y2="114.1"/><linearGradient xlink:href="#linearGradient2584" id="linearGradient2072" gradientUnits="userSpaceOnUse" gradientTransform="translate(1.625686,-26.60180)" x1="58.55" y1="115.94" x2="59.17" y2="119.1"/><linearGradient xlink:href="#linearGradient2584" id="linearGradient2074" gradientUnits="userSpaceOnUse" gradientTransform="translate(1.625686,-26.60180)" x1="59.18" y1="120.82" x2="60.51" y2="126.43"/><linearGradient xlink:href="#linearGradient2584" id="linearGradient2076" gradientUnits="userSpaceOnUse" gradientTransform="translate(1.625686,-26.60180)" x1="58.09" y1="129.02" x2="61.18" y2="134.54"/><linearGradient xlink:href="#linearGradient5075" id="linearGradient2078" gradientUnits="userSpaceOnUse" x1="57.94" y1="86" x2="57.94" y2="103.04"/><linearGradient xlink:href="#linearGradient3340" id="linearGradient2080" gradientUnits="userSpaceOnUse" gradientTransform="translate(44.99988,70.99999)" x1="13.38" y1="17.81" x2="13.5" y2="32.94"/><radialGradient xlink:href="#linearGradient8662" id="radialGradient2093" gradientUnits="userSpaceOnUse" gradientTransform="matrix(1.000000,0.000000,0.000000,0.536723,-4.009838e-13,16.87306)" cx="24.84" cy="36.42" fx="24.84" fy="36.42" r="15.64"/></defs><metadata id="metadata1312"/><g id="layer4"/><g id="layer1"><g id="g2095" transform="translate(-83.00042,-71.09425)"><path id="path1802" d="M40.48 36.42A15.64 8.4 0 1 1 9.19 36.42 15.64 8.4 0 1 1 40.48 36.42z" transform="matrix(1.054680,0.000000,0.000000,0.565685,80.80459,87.64710)" style="fill:url(#radialGradient2093);opacity:0.04"/><g transform="translate(38.00000,0.000000)" id="g3490"><g id="g3480"><path id="path3375" d="M57.5 108.91L57.5 81.09 81.6 95 57.5 108.91z" fill="url(#radialGradient2068)"/><g id="g3469" opacity="0.2"><path d="M64.06 84.88L57.5 85.47 57.5 87.5 67.06 86.63 64.06 84.88z" id="rect3359" style="fill:url(#linearGradient2070);opacity:0.35"/><path d="M70.06 88.34L57.5 89.5 57.5 92.5 74.56 90.94 70.06 88.34z" id="rect3361" style="fill:url(#linearGradient2072);opacity:0.35"/><path d="M77.56 92.69L57.5 94.53 57.5 100.53 74.75 98.94 81.59 95 77.56 92.69z" id="rect3363" style="fill:url(#linearGradient2074);opacity:0.35"/><path d="M70.59 101.34L57.5 102.56 57.5 108.91 70.59 101.34z" id="rect3365" style="fill:url(#linearGradient2076);opacity:0.35"/></g><path id="path2479" d="M57.5 108.91L57.5 81.09 81.6 95 57.5 108.91z" style="fill:none;stroke-linecap:square;stroke-linejoin:round;stroke-width:1;stroke:url(#linearGradient2078)"/><path id="path2481" d="M58 81.97L58 108.03 80.59 95 58 81.97zM59 83.72L78.56 95 59 106.28 59 83.72z" fill="url(#linearGradient2080)"/></g></g></g></g></svg>
